packages/core/src/svgs/tokens/mono/HFT.svg

<svg width="24" height="24" viewBox="0 0 24 24" fill="none" xmlns="http://www.w3.org/2000/svg">
<path fill-rule="evenodd" clip-rule="evenodd" d="M7.29411 4.94116H4.35293V9.05881H2V11.4117H4.35293V13.1764H2V15.5294H4.35293V19.0587H7.29411V15.5294H16.7058V19.0587H19.647V15.5294H22V13.1764H19.647V11.4117H22V9.05881H19.647V4.94116H16.7058V9.05881H7.29411V4.94116ZM16.7058 13.1764V11.4117H7.29411V13.1764H16.7058Z" fill="white"/>
</svg>

<svg xmlns="http://www.w3.org/2000/svg" width="24" height="24" fill="none" viewBox="0 0 24 24">
    <path fill="#fff" fill-rule="evenodd" d="M7.294 4.941H4.353V9.06H2v2.353h2.353v1.764H2v2.353h2.353v3.53h2.941v-3.53h9.412v3.53h2.941v-3.53H22v-2.353h-2.353v-1.764H22V9.059h-2.353V4.94h-2.941v4.12H7.294zm9.412 8.235v-1.764H7.294v1.764z" clip-rule="evenodd"/>
</svg>
